src/assets/camera.svg

<svg width="24" height="21" viewBox="0 0 27 24" fill="none" xmlns="http://www.w3.org/2000/svg">
<path d="M13.5001 17.5997C15.8859 17.5997 17.8201 15.6895 17.8201 13.3331C17.8201 10.9767 15.8859 9.06641 13.5001 9.06641C11.1142 9.06641 9.18005 10.9767 9.18005 13.3331C9.18005 15.6895 11.1142 17.5997 13.5001 17.5997Z" fill="#838383"/>
<path d="M9.45 0L6.9795 2.66667H2.7C1.20825 2.66667 0 3.86 0 5.33333V21.3333C0 22.8067 1.20825 24 2.7 24H24.3C25.7918 24 27 22.8067 27 21.3333V5.33333C27 3.86 25.7918 2.66667 24.3 2.66667H20.0205L17.55 0H9.45ZM13.5 20C9.774 20 6.75 17.0133 6.75 13.3333C6.75 9.65333 9.774 6.66667 13.5 6.66667C17.226 6.66667 20.25 9.65333 20.25 13.3333C20.25 17.0133 17.226 20 13.5 20Z" fill="#838383"/>
</svg>

<svg width="24" height="21" viewBox="0 0 27 24" fill="none" xmlns="http://www.w3.org/2000/svg"><path d="M13.5 17.6c2.386 0 4.32-1.91 4.32-4.267 0-2.356-1.934-4.267-4.32-4.267s-4.32 1.91-4.32 4.267S11.114 17.6 13.5 17.6z" fill="#838383"/><path d="M9.45 0L6.98 2.667H2.7C1.208 2.667 0 3.86 0 5.333v16C0 22.807 1.208 24 2.7 24h21.6c1.492 0 2.7-1.193 2.7-2.667v-16c0-1.473-1.208-2.666-2.7-2.666h-4.28L17.55 0h-8.1zm4.05 20c-3.726 0-6.75-2.987-6.75-6.667 0-3.68 3.024-6.666 6.75-6.666s6.75 2.986 6.75 6.666S17.226 20 13.5 20z" fill="#838383"/></svg>
